src/assets/TYPELOGO.svg

<svg width="200" height="118" viewBox="0 0 200 118" fill="none" xmlns="http://www.w3.org/2000/svg">
<path d="M137.841 32.5766L133.137 3.5651L135.299 32.9766C136.309 46.695 128.539 59.2204 116.984 62.5104C128.879 62.1111 139.257 71.7817 141.45 85.3139L146.154 114.325L143.992 84.9139C142.983 71.1956 150.752 58.6701 162.307 55.3801C150.412 55.7794 140.034 46.1088 137.841 32.5766Z" fill="#D3A7E0"/>
<g filter="url(#filter0_d_70_1812)">
<path d="M16.4398 28.8612L13.6451 36.6701L19.2346 36.6701L16.4398 28.8612ZM10.7064 44.89L9.24741 49L1.02749 49L11.3024 20.2303L21.5773 20.2303L31.8522 49L23.6323 49L22.1732 44.89L10.7064 44.89ZM38.6763 40.7801L46.8963 40.7801L46.8963 49L30.4564 49L30.4564 20.2303L38.6763 20.2303L38.6763 40.7801ZM58.488 20.2303C62.4609 20.2303 65.8517 21.6345 68.6601 24.443C71.4686 27.2515 72.8728 30.6422 72.8728 34.6152C72.8728 38.5881 71.4686 41.9788 68.6601 44.7873C65.8517 47.5958 62.4609 49 58.488 49L47.1856 49L47.1856 20.2303L58.488 20.2303ZM55.4055 40.7801L58.488 40.7801C60.1868 40.7801 61.6389 40.1773 62.8445 38.9717C64.0501 37.7661 64.6529 36.3139 64.6529 34.6152C64.6529 32.9164 64.0501 31.4642 62.8445 30.2586C61.6389 29.053 60.1868 28.4502 58.488 28.4502L55.4055 28.4502L55.4055 40.7801ZM93.2599 20.2303L93.2599 28.4502L80.93 28.4502L80.93 30.5052L91.2049 30.5052L91.2049 38.7251L80.93 38.7251L80.93 40.7801L93.2599 40.7801L93.2599 49L72.7101 49L72.7101 20.2303L93.2599 20.2303ZM102.468 34.6152L102.468 49L94.2479 49L94.2479 20.2303L102.468 20.2303L112.743 34.6152L112.743 20.2303L120.963 20.2303L120.963 49L112.743 49L102.468 34.6152ZM16.4398 99L8.21992 99L8.21992 78.4502L1.02749 78.4502L1.02749 70.2303L23.6323 70.2303L23.6323 78.4502L16.4398 78.4502L16.4398 99ZM33.1279 78.8612L30.3331 86.6701L35.9227 86.6701L33.1279 78.8612ZM27.3945 94.89L25.9355 99L17.7156 99L27.9905 70.2303L38.2653 70.2303L48.5402 99L40.3203 99L38.8613 94.89L27.3945 94.89ZM55.3644 90.7801L63.5843 90.7801L63.5843 99L47.1445 99L47.1445 70.2303L55.3644 70.2303L55.3644 90.7801ZM77.6009 78.8612L74.8062 86.6701L80.3957 86.6701L77.6009 78.8612ZM71.8675 94.89L70.4085 99L62.1886 99L72.4635 70.2303L82.7384 70.2303L93.0133 99L84.7933 99L83.3343 94.89L71.8675 94.89ZM97.3715 99L87.0966 70.2303L95.3165 70.2303L102.509 90.3691L109.701 70.2303L117.921 70.2303L107.646 99L97.3715 99ZM137.075 70.2303L137.075 78.4502L124.745 78.4502L124.745 80.5052L135.02 80.5052L135.02 88.7251L124.745 88.7251L124.745 90.7801L137.075 90.7801L137.075 99L116.526 99L116.526 70.2303L137.075 70.2303ZM146.283 78.4502L146.283 82.5602L152.448 82.5602C153.818 82.5602 154.503 81.8752 154.503 80.5052C154.503 79.1352 153.818 78.4502 152.448 78.4502L146.283 78.4502ZM146.283 90.7801L146.283 99L138.063 99L138.063 70.2303L152.448 70.2303C159.298 70.2303 162.723 73.6553 162.723 80.5052C162.723 85.9851 160.531 89.2731 156.147 90.3691L164.778 99L154.503 99L146.283 90.7801ZM175.137 78.8612L172.342 86.6701L177.932 86.6701L175.137 78.8612ZM169.403 94.89L167.944 99L159.724 99L169.999 70.2303L180.274 70.2303L190.549 99L182.329 99L180.87 94.89L169.403 94.89Z" fill="white"/>
</g>
<defs>
<filter id="filter0_d_70_1812" x="1.02749" y="20.2303" width="198.29" height="87.5376" filterUnits="userSpaceOnUse" color-interpolation-filters="sRGB">
<feFlood flood-opacity="0" result="BackgroundImageFix"/>
<feColorMatrix in="SourceAlpha" type="matrix" values="0 0 0 0 0 0 0 0 0 0 0 0 0 0 0 0 0 0 127 0" result="hardAlpha"/>
<feOffset dx="4.38395" dy="4.38395"/>
<feGaussianBlur stdDeviation="2.19198"/>
<feComposite in2="hardAlpha" operator="out"/>
<feColorMatrix type="matrix" values="0 0 0 0 0 0 0 0 0 0 0 0 0 0 0 0 0 0 0.25 0"/>
<feBlend mode="normal" in2="BackgroundImageFix" result="effect1_dropShadow_70_1812"/>
<feBlend mode="normal" in="SourceGraphic" in2="effect1_dropShadow_70_1812" result="shape"/>
</filter>
</defs>
</svg>

<svg width="200" height="118" fill="none" xmlns="http://www.w3.org/2000/svg"><path d="m137.841 32.577-4.704-29.012 2.162 29.412c1.01 13.718-6.76 26.243-18.315 29.533 11.895-.399 22.273 9.272 24.466 22.804l4.704 29.011-2.162-29.411c-1.009-13.718 6.76-26.244 18.315-29.534-11.895.4-22.273-9.271-24.466-22.803z" fill="#D3A7E0"/><g filter="url(#a)"><path d="m16.44 28.861-2.795 7.81h5.59l-2.795-7.81zM10.706 44.89 9.247 49h-8.22l10.275-28.77h10.275L31.852 49h-8.22l-1.459-4.11H10.706zm27.97-4.11h8.22V49h-16.44V20.23h8.22v20.55zm19.812-20.55c3.973 0 7.364 1.404 10.172 4.213 2.809 2.808 4.213 6.2 4.213 10.172 0 3.973-1.404 7.364-4.213 10.172C65.852 47.596 62.46 49 58.488 49H47.186V20.23h11.302zm-3.082 20.55h3.082c1.699 0 3.15-.603 4.356-1.808 1.206-1.206 1.809-2.658 1.809-4.357 0-1.699-.603-3.15-1.809-4.356-1.205-1.206-2.657-1.809-4.356-1.809h-3.082v12.33zM93.26 20.23v8.22H80.93v2.055h10.275v8.22H80.93v2.055h12.33V49H72.71V20.23h20.55zm9.208 14.385V49h-8.22V20.23h8.22l10.275 14.385V20.23h8.22V49h-8.22l-10.275-14.385zM16.44 99H8.22V78.45H1.027v-8.22h22.605v8.22H16.44V99zm16.688-20.139-2.795 7.81h5.59l-2.795-7.81zM27.395 94.89 25.934 99h-8.22l10.276-28.77h10.274L48.54 99h-8.22l-1.459-4.11H27.395zm27.97-4.11h8.22V99h-16.44V70.23h8.22v20.55zM77.6 78.861l-2.795 7.81h5.59L77.6 78.86zM71.868 94.89 70.408 99h-8.22l10.275-28.77h10.275L93.013 99h-8.22l-1.459-4.11H71.868zM97.372 99 87.096 70.23h8.22l7.192 20.14 7.192-20.14h8.22L107.646 99H97.371zm39.703-28.77v8.22h-12.33v2.055h10.275v8.22h-10.275v2.055h12.33V99h-20.549V70.23h20.549zm9.208 8.22v4.11h6.165c1.37 0 2.055-.685 2.055-2.055s-.685-2.055-2.055-2.055h-6.165zm0 12.33V99h-8.22V70.23h14.385c6.85 0 10.275 3.425 10.275 10.275 0 5.48-2.192 8.768-6.576 9.864L164.778 99h-10.275l-8.22-8.22zm28.854-11.919-2.795 7.81h5.59l-2.795-7.81zm-5.734 16.029L167.944 99h-8.22l10.275-28.77h10.275L190.549 99h-8.22l-1.459-4.11h-11.467z" fill="#fff"/></g><defs><filter id="a" x="1.027" y="20.23" width="198.29" height="87.538" filterUnits="userSpaceOnUse" color-interpolation-filters="sRGB"><feFlood flood-opacity="0" result="BackgroundImageFix"/><feColorMatrix in="SourceAlpha" values="0 0 0 0 0 0 0 0 0 0 0 0 0 0 0 0 0 0 127 0" result="hardAlpha"/><feOffset dx="4.384" dy="4.384"/><feGaussianBlur stdDeviation="2.192"/><feComposite in2="hardAlpha" operator="out"/><feColorMatrix values="0 0 0 0 0 0 0 0 0 0 0 0 0 0 0 0 0 0 0.25 0"/><feBlend in2="BackgroundImageFix" result="effect1_dropShadow_70_1812"/><feBlend in="SourceGraphic" in2="effect1_dropShadow_70_1812" result="shape"/></filter></defs></svg>
